X: 88
T:Cetvorno Horo
O:Bulgaria
S:XOPO Horo and Racenica Dances of Bulgaria X-LP-4-A
F:http://www.youtube.com/watch?v=5aXDMtM8r8I
L:1/8
M:7/8
Q:1/4=180
P:AABBABCBDEB
%%MIDI gchord f3c2c2
K:D
%%MIDI beatstring fppmpmp
P: A
|: "A" ABB BAAG   |"D" F2E DEFG|[1"Em" F2E DEFG|"D" D2E F4    :|\
   [2 "Em"F2E DEFE| "D" D3 D4  |
P:B
|: "A"F2E EDEF    | "D"D2D DEFG| "A7"F2E EDEF  |[1 "D"D2E F4  :|[2 "D"D3 D4|
P:C
K:Cm
|: "Cm" C2G, CDED | D2G,C4     |CDE-ED3        | D2G, C4      :|
P:D
K:D
|: "D"A3 d4       | "Bm"c2B-B4 | "D"A3 d4      |"A"c4-c3      |\
   "D" A3 d4      |"Em" c3B4   |"A"A3G4        |"D" F3-F4     :|
P:E
|: "D"F3 B4       |"A" A2G A2G2| "Bm"F3 B4     |"A" A3-A4     |\
   "Bm" F3 B4     | "A"A2G A2G2| "A"A3 G4      |"D" F3-F4     :|



